X: 1039
T: Year Of Jubilo
C:Henry Clay Work
B: jims roots
M:2/4
L:1/16
Q: 1/4=100
K:Dmaj
V:1 
%R: polka
FE |:"D" D2FF F2A2 | A2f2 fedB | A2F2 dBAF |"A" E4-E2 FE|
"D"D2FF F2A2 | A2f2  fedB | A2d2 "A"e2>c2|[1"D" d6 FE :|[2"D"d4-d2 A2||
|:"G"B2>A2 B2c2 | d2>c2 d2B2 |"D" A2F2 dBAF |"A" E4-E2 FE |
"D" D2FF F2A2 | A2f2 "G"fedB |"D" A2d2 "A"e2>c2|[1"D"d4-d2 :|[2 d6 FE ||
% abcbook-tune_id 6298c297aea71c4c6709b0b7


% abcbook-boost 0
% abcbook-tablature 
% abcbook-transpose 
% abcbook-lastupdated 1654178457121
% abcbook-soundfonts 
% abcbook-repeats 1


